components/ui-node-icon/src/splitColumns/splitColumns.small.svg

<svg width="16" height="16" viewBox="0 0 16 16" fill="none" xmlns="http://www.w3.org/2000/svg">
  <path fill-rule="evenodd" clip-rule="evenodd" d="M5.5 2C5.22386 2 5 2.22386 5 2.5V6H6V3H7.5V7H2.70711L3.85355 5.85355C4.04882 5.65829 4.04882 5.34171 3.85355 5.14645C3.65829 4.95118 3.34171 4.95118 3.14645 5.14645L1.14645 7.14645C0.951184 7.34171 0.951184 7.65829 1.14645 7.85355L3.14645 9.85355C3.34171 10.0488 3.65829 10.0488 3.85355 9.85355C4.04882 9.65829 4.04882 9.34171 3.85355 9.14645L2.70711 8H7.5V13H6V9H5V13.5C5 13.7761 5.22386 14 5.5 14H8H10.5C10.7761 14 11 13.7761 11 13.5V9H10V13H8.5V8H13.2929L12.1464 9.14645C11.9512 9.34171 11.9512 9.65829 12.1464 9.85355C12.3417 10.0488 12.6583 10.0488 12.8536 9.85355L14.8536 7.85355C15.0488 7.65829 15.0488 7.34171 14.8536 7.14645L12.8536 5.14645C12.6583 4.95118 12.3417 4.95118 12.1464 5.14645C11.9512 5.34171 11.9512 5.65829 12.1464 5.85355L13.2929 7H8.5V3H10V6H11V2.5C11 2.22386 10.7761 2 10.5 2H8H5.5Z" fill="currentColor"/>
</svg>

<svg xmlns="http://www.w3.org/2000/svg" width="16" height="16" fill="none" viewBox="0 0 16 16">
  <path fill="currentColor" fill-rule="evenodd" d="M5.5 2a.5.5 0 0 0-.5.5V6h1V3h1.5v4H2.707l1.147-1.146a.5.5 0 1 0-.708-.708l-2 2a.5.5 0 0 0 0 .708l2 2a.5.5 0 0 0 .708-.708L2.707 8H7.5v5H6V9H5v4.5a.5.5 0 0 0 .5.5h5a.5.5 0 0 0 .5-.5V9h-1v4H8.5V8h4.793l-1.147 1.146a.5.5 0 0 0 .708.708l2-2a.5.5 0 0 0 0-.708l-2-2a.5.5 0 0 0-.708.708L13.293 7H8.5V3H10v3h1V2.5a.5.5 0 0 0-.5-.5h-5Z" clip-rule="evenodd"/>
</svg>
